assets/imagens/discord_icon.svg

<svg fill="#000000" xmlns="http://www.w3.org/2000/svg"  viewBox="0 0 50 50" width="100px" height="100px"><path d="M 18.90625 7 C 18.90625 7 12.539063 7.4375 8.375 10.78125 C 8.355469 10.789063 8.332031 10.800781 8.3125 10.8125 C 7.589844 11.480469 7.046875 12.515625 6.375 14 C 5.703125 15.484375 4.992188 17.394531 4.34375 19.53125 C 3.050781 23.808594 2 29.058594 2 34 C 1.996094 34.175781 2.039063 34.347656 2.125 34.5 C 3.585938 37.066406 6.273438 38.617188 8.78125 39.59375 C 11.289063 40.570313 13.605469 40.960938 14.78125 41 C 15.113281 41.011719 15.429688 40.859375 15.625 40.59375 L 18.0625 37.21875 C 20.027344 37.683594 22.332031 38 25 38 C 27.667969 38 29.972656 37.683594 31.9375 37.21875 L 34.375 40.59375 C 34.570313 40.859375 34.886719 41.011719 35.21875 41 C 36.394531 40.960938 38.710938 40.570313 41.21875 39.59375 C 43.726563 38.617188 46.414063 37.066406 47.875 34.5 C 47.960938 34.347656 48.003906 34.175781 48 34 C 48 29.058594 46.949219 23.808594 45.65625 19.53125 C 45.007813 17.394531 44.296875 15.484375 43.625 14 C 42.953125 12.515625 42.410156 11.480469 41.6875 10.8125 C 41.667969 10.800781 41.644531 10.789063 41.625 10.78125 C 37.460938 7.4375 31.09375 7 31.09375 7 C 31.019531 6.992188 30.949219 6.992188 30.875 7 C 30.527344 7.046875 30.234375 7.273438 30.09375 7.59375 C 30.09375 7.59375 29.753906 8.339844 29.53125 9.40625 C 27.582031 9.09375 25.941406 9 25 9 C 24.058594 9 22.417969 9.09375 20.46875 9.40625 C 20.246094 8.339844 19.90625 7.59375 19.90625 7.59375 C 19.734375 7.203125 19.332031 6.964844 18.90625 7 Z M 18.28125 9.15625 C 18.355469 9.359375 18.40625 9.550781 18.46875 9.78125 C 16.214844 10.304688 13.746094 11.160156 11.4375 12.59375 C 11.074219 12.746094 10.835938 13.097656 10.824219 13.492188 C 10.816406 13.882813 11.039063 14.246094 11.390625 14.417969 C 11.746094 14.585938 12.167969 14.535156 12.46875 14.28125 C 17.101563 11.410156 22.996094 11 25 11 C 27.003906 11 32.898438 11.410156 37.53125 14.28125 C 37.832031 14.535156 38.253906 14.585938 38.609375 14.417969 C 38.960938 14.246094 39.183594 13.882813 39.175781 13.492188 C 39.164063 13.097656 38.925781 12.746094 38.5625 12.59375 C 36.253906 11.160156 33.785156 10.304688 31.53125 9.78125 C 31.59375 9.550781 31.644531 9.359375 31.71875 9.15625 C 32.859375 9.296875 37.292969 9.894531 40.3125 12.28125 C 40.507813 12.460938 41.1875 13.460938 41.8125 14.84375 C 42.4375 16.226563 43.09375 18.027344 43.71875 20.09375 C 44.9375 24.125 45.921875 29.097656 45.96875 33.65625 C 44.832031 35.496094 42.699219 36.863281 40.5 37.71875 C 38.5 38.496094 36.632813 38.84375 35.65625 38.9375 L 33.96875 36.65625 C 34.828125 36.378906 35.601563 36.078125 36.28125 35.78125 C 38.804688 34.671875 40.15625 33.5 40.15625 33.5 C 40.570313 33.128906 40.605469 32.492188 40.234375 32.078125 C 39.863281 31.664063 39.226563 31.628906 38.8125 32 C 38.8125 32 37.765625 32.957031 35.46875 33.96875 C 34.625 34.339844 33.601563 34.707031 32.4375 35.03125 C 32.167969 35 31.898438 35.078125 31.6875 35.25 C 29.824219 35.703125 27.609375 36 25 36 C 22.371094 36 20.152344 35.675781 18.28125 35.21875 C 18.070313 35.078125 17.8125 35.019531 17.5625 35.0625 C 16.394531 34.738281 15.378906 34.339844 14.53125 33.96875 C 12.234375 32.957031 11.1875 32 11.1875 32 C 10.960938 31.789063 10.648438 31.699219 10.34375 31.75 C 9.957031 31.808594 9.636719 32.085938 9.53125 32.464844 C 9.421875 32.839844 9.546875 33.246094 9.84375 33.5 C 9.84375 33.5 11.195313 34.671875 13.71875 35.78125 C 14.398438 36.078125 15.171875 36.378906 16.03125 36.65625 L 14.34375 38.9375 C 13.367188 38.84375 11.5 38.496094 9.5 37.71875 C 7.300781 36.863281 5.167969 35.496094 4.03125 33.65625 C 4.078125 29.097656 5.0625 24.125 6.28125 20.09375 C 6.90625 18.027344 7.5625 16.226563 8.1875 14.84375 C 8.8125 13.460938 9.492188 12.460938 9.6875 12.28125 C 12.707031 9.894531 17.140625 9.296875 18.28125 9.15625 Z M 18.5 21 C 15.949219 21 14 23.316406 14 26 C 14 28.683594 15.949219 31 18.5 31 C 21.050781 31 23 28.683594 23 26 C 23 23.316406 21.050781 21 18.5 21 Z M 31.5 21 C 28.949219 21 27 23.316406 27 26 C 27 28.683594 28.949219 31 31.5 31 C 34.050781 31 36 28.683594 36 26 C 36 23.316406 34.050781 21 31.5 21 Z M 18.5 23 C 19.816406 23 21 24.265625 21 26 C 21 27.734375 19.816406 29 18.5 29 C 17.183594 29 16 27.734375 16 26 C 16 24.265625 17.183594 23 18.5 23 Z M 31.5 23 C 32.816406 23 34 24.265625 34 26 C 34 27.734375 32.816406 29 31.5 29 C 30.183594 29 29 27.734375 29 26 C 29 24.265625 30.183594 23 31.5 23 Z"/></svg>

<svg version="1.1" xmlns="http://www.w3.org/2000/svg" xmlns:xlink="http://www.w3.org/1999/xlink" width="100px" height="100px" viewBox="0,0,256,256"><g fill="#ffffff" fill-rule="nonzero" stroke="none" stroke-width="1" stroke-linecap="butt" stroke-linejoin="miter" stroke-miterlimit="10" stroke-dasharray="" stroke-dashoffset="0" font-family="none" font-weight="none" font-size="none" text-anchor="none" style="mix-blend-mode: normal"><g transform="translate(0,5.13339) scale(5.12,5.12)"><path d="M18.90625,7c0,0 -6.36719,0.4375 -10.53125,3.78125c-0.01953,0.00781 -0.04297,0.01953 -0.0625,0.03125c-0.72266,0.66797 -1.26562,1.70313 -1.9375,3.1875c-0.67187,1.48438 -1.38281,3.39453 -2.03125,5.53125c-1.29297,4.27734 -2.34375,9.52734 -2.34375,14.46875c-0.00391,0.17578 0.03906,0.34766 0.125,0.5c1.46094,2.56641 4.14844,4.11719 6.65625,5.09375c2.50781,0.97656 4.82422,1.36719 6,1.40625c0.33203,0.01172 0.64844,-0.14062 0.84375,-0.40625l2.4375,-3.375c1.96484,0.46484 4.26953,0.78125 6.9375,0.78125c2.66797,0 4.97266,-0.31641 6.9375,-0.78125l2.4375,3.375c0.19531,0.26563 0.51172,0.41797 0.84375,0.40625c1.17578,-0.03906 3.49219,-0.42969 6,-1.40625c2.50781,-0.97656 5.19531,-2.52734 6.65625,-5.09375c0.08594,-0.15234 0.12891,-0.32422 0.125,-0.5c0,-4.94141 -1.05078,-10.19141 -2.34375,-14.46875c-0.64844,-2.13672 -1.35937,-4.04687 -2.03125,-5.53125c-0.67187,-1.48437 -1.21484,-2.51953 -1.9375,-3.1875c-0.01953,-0.01172 -0.04297,-0.02344 -0.0625,-0.03125c-4.16406,-3.34375 -10.53125,-3.78125 -10.53125,-3.78125c-0.07422,-0.00781 -0.14453,-0.00781 -0.21875,0c-0.34766,0.04688 -0.64062,0.27344 -0.78125,0.59375c0,0 -0.33984,0.74609 -0.5625,1.8125c-1.94922,-0.3125 -3.58984,-0.40625 -4.53125,-0.40625c-0.94141,0 -2.58203,0.09375 -4.53125,0.40625c-0.22266,-1.06641 -0.5625,-1.8125 -0.5625,-1.8125c-0.17187,-0.39062 -0.57422,-0.62891 -1,-0.59375zM18.28125,9.15625c0.07422,0.20313 0.125,0.39453 0.1875,0.625c-2.25391,0.52344 -4.72266,1.37891 -7.03125,2.8125c-0.36328,0.15234 -0.60156,0.50391 -0.61328,0.89844c-0.00781,0.39063 0.21484,0.75391 0.56641,0.92578c0.35547,0.16797 0.77734,0.11719 1.07813,-0.13672c4.63281,-2.87109 10.52734,-3.28125 12.53125,-3.28125c2.00391,0 7.89844,0.41016 12.53125,3.28125c0.30078,0.25391 0.72266,0.30469 1.07813,0.13672c0.35156,-0.17187 0.57422,-0.53516 0.56641,-0.92578c-0.01172,-0.39453 -0.25,-0.74609 -0.61328,-0.89844c-2.30859,-1.43359 -4.77734,-2.28906 -7.03125,-2.8125c0.0625,-0.23047 0.11328,-0.42187 0.1875,-0.625c1.14063,0.14063 5.57422,0.73828 8.59375,3.125c0.19531,0.17969 0.875,1.17969 1.5,2.5625c0.625,1.38281 1.28125,3.18359 1.90625,5.25c1.21875,4.03125 2.20313,9.00391 2.25,13.5625c-1.13672,1.83984 -3.26953,3.20703 -5.46875,4.0625c-2,0.77734 -3.86719,1.125 -4.84375,1.21875l-1.6875,-2.28125c0.85938,-0.27734 1.63281,-0.57812 2.3125,-0.875c2.52344,-1.10937 3.875,-2.28125 3.875,-2.28125c0.41406,-0.37109 0.44922,-1.00781 0.07813,-1.42187c-0.37109,-0.41406 -1.00781,-0.44922 -1.42187,-0.07812c0,0 -1.04687,0.95703 -3.34375,1.96875c-0.84375,0.37109 -1.86719,0.73828 -3.03125,1.0625c-0.26953,-0.03125 -0.53906,0.04688 -0.75,0.21875c-1.86328,0.45313 -4.07812,0.75 -6.6875,0.75c-2.62891,0 -4.84766,-0.32422 -6.71875,-0.78125c-0.21094,-0.14062 -0.46875,-0.19922 -0.71875,-0.15625c-1.16797,-0.32422 -2.18359,-0.72266 -3.03125,-1.09375c-2.29687,-1.01172 -3.34375,-1.96875 -3.34375,-1.96875c-0.22656,-0.21094 -0.53906,-0.30078 -0.84375,-0.25c-0.38672,0.05859 -0.70703,0.33594 -0.8125,0.71484c-0.10937,0.375 0.01563,0.78125 0.3125,1.03516c0,0 1.35156,1.17188 3.875,2.28125c0.67969,0.29688 1.45313,0.59766 2.3125,0.875l-1.6875,2.28125c-0.97656,-0.09375 -2.84375,-0.44141 -4.84375,-1.21875c-2.19922,-0.85547 -4.33203,-2.22266 -5.46875,-4.0625c0.04688,-4.55859 1.03125,-9.53125 2.25,-13.5625c0.625,-2.06641 1.28125,-3.86719 1.90625,-5.25c0.625,-1.38281 1.30469,-2.38281 1.5,-2.5625c3.01953,-2.38672 7.45313,-2.98437 8.59375,-3.125zM18.5,21c-2.55078,0 -4.5,2.31641 -4.5,5c0,2.68359 1.94922,5 4.5,5c2.55078,0 4.5,-2.31641 4.5,-5c0,-2.68359 -1.94922,-5 -4.5,-5zM31.5,21c-2.55078,0 -4.5,2.31641 -4.5,5c0,2.68359 1.94922,5 4.5,5c2.55078,0 4.5,-2.31641 4.5,-5c0,-2.68359 -1.94922,-5 -4.5,-5zM18.5,23c1.31641,0 2.5,1.26563 2.5,3c0,1.73438 -1.18359,3 -2.5,3c-1.31641,0 -2.5,-1.26562 -2.5,-3c0,-1.73437 1.18359,-3 2.5,-3zM31.5,23c1.31641,0 2.5,1.26563 2.5,3c0,1.73438 -1.18359,3 -2.5,3c-1.31641,0 -2.5,-1.26562 -2.5,-3c0,-1.73437 1.18359,-3 2.5,-3z"></path></g></g></svg>
